src/assets/images/coins/btc.svg

<?xml version="1.0" encoding="UTF-8"?>
<svg width="64px" height="65px" viewBox="0 0 64 65" version="1.1" xmlns="http://www.w3.org/2000/svg" xmlns:xlink="http://www.w3.org/1999/xlink">
    <title>Group</title>
    <g id="Symbols" stroke="none" stroke-width="1" fill="none" fill-rule="evenodd">
        <g id="Group">
            <circle id="Combined-Shape" fill="#F89B2B" fill-rule="nonzero" cx="31.7" cy="32.5" r="31.7"></circle>
            <path d="M30.9,12.3 C31.9,12.6 32.8,12.8 33.8,13 C34.1,13.1 34.1,13.2 34,13.4 L33.7,14.615625 L33.7,14.615625 L33.1,17.084375 C33,17.49375 32.9,17.9 32.8,18.3 C32.8,18.4 32.8,18.5 32.7,18.7 C33.5,18.9 34.4,19.1 35.2,19.3 C35.25,19.3 35.3,19.25 35.35,19.1875 L35.45,19.0569444 C35.4666667,19.0361111 35.4833333,19.0166667 35.5,19 C35.8,17.7 36.1,16.5 36.5,15.2 L36.8,14 L36.8,14 C36.8,13.8 36.9,13.7 37.1,13.8 C38.1,14.1 39.1,14.3 40.2,14.6 C40.3,14.6 40.3,14.7 40.4,14.7 C40.1,16 39.8,17.2 39.5,18.4 C39.4,18.9 39.3,19.4 39.1,19.9 C39,20.2 39.1,20.3 39.4,20.4 L42.7,21.9 L42.7,21.9 C43.7,22.5 44.6,23.3 45.3,24.3 C46.2,25.8 46.3,27.4 45.9,29 C45.6,30.1 45.2,31.1 44.4,31.9 C43.8,32.5 43,32.9 42.2,33.2 C42.1,33.2 42,33.3 41.8,33.3 L42.1,33.509375 L42.1,33.509375 L42.7,33.890625 C42.8,33.95625 42.9,34.025 43,34.1 C44.2,35 45,36.1 45.4,37.5 C45.6,38.6 45.5,39.8 45.2,40.9 C44.8,42.3 44.3,43.5 43.4,44.6 C42.3,45.9 40.9,46.6 39.3,46.8 C37.2,47.1 35.2,46.9 33.2,46.6 C32.9,46.5 32.7,46.6 32.6,46.9 L32.3,48.115625 L32.3,48.115625 L31.7,50.584375 C31.6,50.99375 31.5,51.4 31.4,51.8 C31.3,52.2 31.3,52.3 30.8,52.1 C29.9,51.9 28.9,51.6 28,51.4 C27.7,51.3 27.7,51.2 27.8,51 C28.2,49.3 28.6,47.6 29.1,46 C29.1,45.8 29.2,45.7 29,45.6 C28.2,45.4 27.4,45.2 26.5,45 C26.3,45.9 26,46.8 25.8,47.7 C25.6,48.6 25.3,49.5 25.1,50.4 C25,50.6 25,50.7 24.7,50.6 C23.7,50.3 22.7,50.1 21.7,49.9 C21.4,49.8 21.4,49.7 21.5,49.5 C21.9,47.8 22.3,46.1 22.8,44.5 C22.8,44.4 22.9,44.3 22.9,44.1 C20.6,43.5 18.3,42.9 15.9,42.3 C16.1,41.9 16.2,41.6 16.4,41.2 C16.8,40.3 17.2,39.4 17.5,38.6 C17.6,38.3 17.7,38.3 18,38.3 C18.7,38.5 19.5,38.7 20.2,38.8 C21,39 21.6,38.6 21.7,37.9 C23,32.8 24.3,27.7 25.5,22.5 C25.7,21.7 25.2,20.8 24.3,20.5 C23.4,20.2 22.5,20 21.7,19.8 C21.5,19.8 21.4,19.7 21.5,19.5 L21.725,18.659375 L21.725,18.659375 L22.175,16.940625 L22.175,16.940625 L22.331,16.3575 L22.925,16.509375 L22.925,16.509375 L24.575,16.890625 L24.575,16.890625 L26.225,17.309375 L26.225,17.309375 L27.875,17.690625 C28.15,17.75625 28.425,17.825 28.7,17.9 C29,18 29.1,17.9 29.2,17.6 L29.5,16.340625 L29.5,16.340625 L30.1,13.859375 C30.2,13.44375 30.3,13.025 30.4,12.6 C30.5,12.3 30.6,12.2 30.9,12.3 Z M29,33.8 C28.8,34.8 28.5,35.7 28.3,36.7 C27.9,38.1 27.6,39.5 27.2,41 C27.26,41 27.32,41.036 27.3584,41.0648 L27.4,41.1 L27.4,41.1 C29,41.5 30.7,42 32.4,42.1 C33.6,42.2 34.7,42.2 35.8,41.8 C37.7,41.2 38.5,38.7 37.4,37.1 C36.9,36.3 36.1,35.8 35.3,35.3 C33.5,34.3 31.4,33.9 29.4,33.5 C29.1,33.4 29.1,33.5 29,33.8 Z M31.5,23.4 C31,25.5 30.5,27.5 29.9,29.6 C29.8,29.8 29.9,29.9 30.1,30 C30.5,30.1 30.8,30.2 31.2,30.3 C32.7,30.5 34,30.8 35.6,30.8 C35.8,30.8 36.3,30.7 36.7,30.6 C38.6,30.2 39.6,28 38.6,26.3 C38.1,25.4 37.2,24.8 36.3,24.4 C34.9,23.8 33.5,23.5 32,23.1 C31.7,23 31.6,23.1 31.5,23.4 Z" id="Combined-Shape" fill="#FFFFFF"></path>
        </g>
    </g>
</svg>

<svg height="65" viewBox="0 0 64 65" width="64" xmlns="http://www.w3.org/2000/svg"><g fill="none" fill-rule="evenodd"><circle cx="31.7" cy="32.5" fill="#f89b2b" fill-rule="nonzero" r="31.7"/><path d="m30.9 12.3c1 .3 1.9.5 2.9.7.3.1.3.2.2.4l-.3 1.215625-.6 2.46875c-.1.409375-.2.815625-.3 1.215625 0 .1 0 .2-.1.4.8.2 1.7.4 2.5.6.05 0 .1-.05.15-.1125l.1-.1305556c.0166667-.0208333.0333333-.0402777.05-.0569444.3-1.3.6-2.5 1-3.8l.3-1.2c0-.2.1-.3.3-.2 1 .3 2 .5 3.1.8.1 0 .1.1.2.1-.3 1.3-.6 2.5-.9 3.7-.1.5-.2 1-.4 1.5-.1.3 0 .4.3.5l3.3 1.5c1 .6 1.9 1.4 2.6 2.4.9 1.5 1 3.1.6 4.7-.3 1.1-.7 2.1-1.5 2.9-.6.6-1.4 1-2.2 1.3-.1 0-.2.1-.4.1l.3.209375.6.38125c.1.065625.2.134375.3.209375 1.2.9 2 2 2.4 3.4.2 1.1.1 2.3-.2 3.4-.4 1.4-.9 2.6-1.8 3.7-1.1 1.3-2.5 2-4.1 2.2-2.1.3-4.1.1-6.1-.2-.3-.1-.5 0-.6.3l-.3 1.215625-.6 2.46875c-.1.409375-.2.815625-.3 1.215625s-.1.5-.6.3c-.9-.2-1.9-.5-2.8-.7-.3-.1-.3-.2-.2-.4.4-1.7.8-3.4 1.3-5 0-.2.1-.3-.1-.4-.8-.2-1.6-.4-2.5-.6-.2.9-.5 1.8-.7 2.7s-.5 1.8-.7 2.7c-.1.2-.1.3-.4.2-1-.3-2-.5-3-.7-.3-.1-.3-.2-.2-.4.4-1.7.8-3.4 1.3-5 0-.1.1-.2.1-.4-2.3-.6-4.6-1.2-7-1.8.2-.4.3-.7.5-1.1.4-.9.8-1.8 1.1-2.6.1-.3.2-.3.5-.3.7.2 1.5.4 2.2.5.8.2 1.4-.2 1.5-.9 1.3-5.1 2.6-10.2 3.8-15.4.2-.8-.3-1.7-1.2-2s-1.8-.5-2.6-.7c-.2 0-.3-.1-.2-.3l.225-.840625.45-1.71875.156-.583125.594.151875 1.65.38125 1.65.41875 1.65.38125c.275.065625.55.134375.825.209375.3.1.4 0 .5-.3l.3-1.259375.6-2.48125c.1-.415625.2-.834375.3-1.259375.1-.3.2-.4.5-.3zm-1.9 21.5c-.2 1-.5 1.9-.7 2.9-.4 1.4-.7 2.8-1.1 4.3.06 0 .12.036.1584.0648l.0416.0352c1.6.4 3.3.9 5 1 1.2.1 2.3.1 3.4-.3 1.9-.6 2.7-3.1 1.6-4.7-.5-.8-1.3-1.3-2.1-1.8-1.8-1-3.9-1.4-5.9-1.8-.3-.1-.3 0-.4.3zm2.5-10.4c-.5 2.1-1 4.1-1.6 6.2-.1.2 0 .3.2.4.4.1.7.2 1.1.3 1.5.2 2.8.5 4.4.5.2 0 .7-.1 1.1-.2 1.9-.4 2.9-2.6 1.9-4.3-.5-.9-1.4-1.5-2.3-1.9-1.4-.6-2.8-.9-4.3-1.3-.3-.1-.4 0-.5.3z" fill="#fff"/></g></svg>
